packages/icons/src/dialogbox-question.svg

<svg width="24" height="24" viewBox="0 0 24 24" fill="none" xmlns="http://www.w3.org/2000/svg">
<path d="M11 22L11.25 19H11.5C13.8667 19 15.875 18.175 17.525 16.525C19.175 14.875 20 12.8667 20 10.5C20 8.13333 19.175 6.125 17.525 4.475C15.875 2.825 13.8667 2 11.5 2C10.3167 2 9.2125 2.22083 8.1875 2.6625C7.1625 3.10417 6.2625 3.7125 5.4875 4.4875C4.7125 5.2625 4.10417 6.1625 3.6625 7.1875C3.22083 8.2125 3 9.31667 3 10.5C3 13.0333 3.75833 15.3042 5.275 17.3125C6.79167 19.3208 8.7 20.8833 11 22ZM11.525 15.975C11.2417 15.975 11 15.875 10.8 15.675C10.6 15.475 10.5 15.2333 10.5 14.95C10.5 14.6667 10.6 14.425 10.8 14.225C11 14.025 11.2417 13.925 11.525 13.925C11.8083 13.925 12.05 14.025 12.25 14.225C12.45 14.425 12.55 14.6667 12.55 14.95C12.55 15.2333 12.45 15.475 12.25 15.675C12.05 15.875 11.8083 15.975 11.525 15.975ZM11.5 12.8C11.3167 12.8 11.15 12.7333 11 12.6C10.85 12.4667 10.75 12.2833 10.7 12.05C10.6667 11.8333 10.575 11.6375 10.425 11.4625C10.275 11.2875 10.0167 11.0167 9.65 10.65C9.35 10.35 9.1 10.025 8.9 9.675C8.7 9.325 8.6 8.95 8.6 8.55C8.6 7.7 8.8875 7.0625 9.4625 6.6375C10.0375 6.2125 10.7167 6 11.5 6C12.0833 6 12.5875 6.13333 13.0125 6.4C13.4375 6.66667 13.7833 7 14.05 7.4C14.1667 7.58333 14.1875 7.775 14.1125 7.975C14.0375 8.175 13.8833 8.31667 13.65 8.4C13.4833 8.46667 13.3167 8.46667 13.15 8.4C12.9833 8.33333 12.8333 8.20833 12.7 8.025C12.5667 7.84167 12.4042 7.69167 12.2125 7.575C12.0208 7.45833 11.7833 7.4 11.5 7.4C11.05 7.4 10.7125 7.525 10.4875 7.775C10.2625 8.025 10.15 8.3 10.15 8.6C10.15 8.88333 10.2333 9.1375 10.4 9.3625C10.5667 9.5875 10.7667 9.81667 11 10.05C11.4667 10.45 11.7792 10.775 11.9375 11.025C12.0958 11.275 12.1917 11.6167 12.225 12.05C12.2417 12.25 12.1792 12.425 12.0375 12.575C11.8958 12.725 11.7167 12.8 11.5 12.8ZM9 17V18.35C7.81667 17.35 6.85417 16.1792 6.1125 14.8375C5.37083 13.4958 5 12.05 5 10.5C5 8.68333 5.62917 7.14583 6.8875 5.8875C8.14583 4.62917 9.68333 4 11.5 4C13.3167 4 14.8542 4.62917 16.1125 5.8875C17.3708 7.14583 18 8.68333 18 10.5C18 12.3167 17.3708 13.8542 16.1125 15.1125C14.8542 16.3708 13.3167 17 11.5 17H9Z" fill="black"/>
</svg>

<svg xmlns="http://www.w3.org/2000/svg" width="24" height="24" fill="none" viewBox="0 0 24 24">
  <path fill="#000" d="m11 22 .25-3h.25c2.367 0 4.375-.825 6.025-2.475C19.175 14.875 20 12.867 20 10.5c0-2.367-.825-4.375-2.475-6.025C15.875 2.825 13.867 2 11.5 2a8.28 8.28 0 0 0-3.313.663 8.585 8.585 0 0 0-4.524 4.525A8.28 8.28 0 0 0 3 10.5c0 2.533.758 4.804 2.275 6.813A15.625 15.625 0 0 0 11 22Zm.525-6.025a.988.988 0 0 1-.725-.3c-.2-.2-.3-.442-.3-.725s.1-.525.3-.725c.2-.2.442-.3.725-.3s.525.1.725.3c.2.2.3.442.3.725s-.1.525-.3.725c-.2.2-.442.3-.725.3ZM11.5 12.8a.735.735 0 0 1-.5-.2.988.988 0 0 1-.3-.55 1.16 1.16 0 0 0-.275-.588c-.15-.175-.408-.445-.775-.812-.3-.3-.55-.625-.75-.975-.2-.35-.3-.725-.3-1.125 0-.85.287-1.488.863-1.913C10.037 6.213 10.716 6 11.5 6c.583 0 1.088.133 1.512.4.425.267.771.6 1.038 1a.616.616 0 0 1 .063.575c-.075.2-.23.342-.463.425a.65.65 0 0 1-.5 0 1.047 1.047 0 0 1-.45-.375 1.673 1.673 0 0 0-.487-.45c-.192-.117-.43-.175-.713-.175-.45 0-.787.125-1.012.375-.226.25-.338.525-.338.825 0 .283.083.537.25.763.167.225.367.454.6.687.467.4.78.725.938.975.158.25.254.592.287 1.025a.655.655 0 0 1-.188.525.708.708 0 0 1-.537.225ZM9 17v1.35c-1.183-1-2.146-2.17-2.888-3.513A8.823 8.823 0 0 1 5 10.5c0-1.817.63-3.354 1.888-4.612C8.146 4.629 9.683 4 11.5 4c1.817 0 3.354.63 4.613 1.888C17.37 7.146 18 8.683 18 10.5c0 1.817-.63 3.354-1.887 4.613C14.854 16.37 13.317 17 11.5 17H9Z"/>
</svg>
